Numix-Light/16/status/yd-busy2.svg

<?xml version="1.0" encoding="UTF-8" standalone="no"?>
<!-- Created with Inkscape (http://www.inkscape.org/) -->

<svg
   xmlns:dc="http://purl.org/dc/elements/1.1/"
   xmlns:cc="http://creativecommons.org/ns#"
   xmlns:rdf="http://www.w3.org/1999/02/22-rdf-syntax-ns#"
   xmlns:svg="http://www.w3.org/2000/svg"
   xmlns="http://www.w3.org/2000/svg"
   xmlns:sodipodi="http://sodipodi.sourceforge.net/DTD/sodipodi-0.dtd"
   xmlns:inkscape="http://www.inkscape.org/namespaces/inkscape"
   id="svg2"
   version="1.1"
   inkscape:version="0.91 r"
   width="16"
   height="16"
   viewBox="0 0 16 16"
   sodipodi:docname="yd-busy2.svg">
  <metadata
     id="metadata8">
    <rdf:RDF>
      <cc:Work
         rdf:about="">
        <dc:format>image/svg+xml</dc:format>
        <dc:type
           rdf:resource="http://purl.org/dc/dcmitype/StillImage" />
        <dc:title />
      </cc:Work>
    </rdf:RDF>
  </metadata>
  <defs
     id="defs6">
    <clipPath
       id="clipPath-408241621">
      <g
         id="g3616"
         transform="translate(0,-1004.3622)">
        <path
           id="path3618"
           transform="matrix(15.333333,0,0,11.5,414.99999,878.8622)"
           d="m -24,13 c 0,1.105 -0.672,2 -1.5,2 -0.828,0 -1.5,-0.895 -1.5,-2 0,-1.105 0.672,-2 1.5,-2 0.828,0 1.5,0.895 1.5,2 z"
           inkscape:connector-curvature="0"
           style="fill:#1890d0" />
      </g>
    </clipPath>
    <clipPath
       id="clipPath-408241621-2">
      <g
         id="g3616-2"
         transform="translate(0,-1004.3622)">
        <path
           id="path3618-9"
           transform="matrix(15.333333,0,0,11.5,414.99999,878.8622)"
           d="m -24,13 c 0,1.105 -0.672,2 -1.5,2 -0.828,0 -1.5,-0.895 -1.5,-2 0,-1.105 0.672,-2 1.5,-2 0.828,0 1.5,0.895 1.5,2 z"
           inkscape:connector-curvature="0"
           style="fill:#1890d0" />
      </g>
    </clipPath>
    <clipPath
       id="clipPath-408241621-2-6">
      <g
         id="g3616-2-4"
         transform="translate(0,-1004.3622)">
        <path
           id="path3618-9-4"
           transform="matrix(15.333333,0,0,11.5,414.99999,878.8622)"
           d="m -24,13 c 0,1.105 -0.672,2 -1.5,2 -0.828,0 -1.5,-0.895 -1.5,-2 0,-1.105 0.672,-2 1.5,-2 0.828,0 1.5,0.895 1.5,2 z"
           inkscape:connector-curvature="0"
           style="fill:#1890d0" />
      </g>
    </clipPath>
  </defs>
  <sodipodi:namedview
     pagecolor="#ffffff"
     bordercolor="#666666"
     borderopacity="1"
     objecttolerance="10"
     gridtolerance="10"
     guidetolerance="10"
     inkscape:pageopacity="0"
     inkscape:pageshadow="2"
     inkscape:window-width="1366"
     inkscape:window-height="747"
     id="namedview4"
     showgrid="true"
     showguides="false"
     inkscape:zoom="22.627416"
     inkscape:cx="7.9883366"
     inkscape:cy="12.354745"
     inkscape:window-x="0"
     inkscape:window-y="21"
     inkscape:window-maximized="1"
     inkscape:current-layer="svg2">
    <inkscape:grid
       type="xygrid"
       id="grid4142" />
  </sodipodi:namedview>
  <path
     style="opacity:1;fill:#353535;fill-opacity:0.94117647;fill-rule:nonzero;stroke:none;stroke-width:1;stroke-linecap:square;stroke-linejoin:round;stroke-miterlimit:4;stroke-dasharray:none;stroke-dashoffset:0;stroke-opacity:1"
     d="M 8.7610803,4.1741728 8.7438923,4.4960554 C 9.382231,4.6543862 9.961963,4.9828393 10.428306,5.4351399 10.549057,5.4183799 10.664489,5.4058609 10.783003,5.3913889 10.630547,5.2219163 10.463237,5.0688779 10.286116,4.928878 10.238923,4.9058559 10.189173,4.8885903 10.142362,4.864814 9.8797564,4.7314328 9.7085424,4.6091152 9.3767194,4.4226161 9.3062944,4.3830341 9.2197494,4.3360295 9.1392144,4.291363 9.0147954,4.2473673 8.8895217,4.2055218 8.7610803,4.1741728 Z m -2.2484904,0.064064 -0.7906435,0.020313 c -0.022168,0.017558 -0.043632,0.031951 -0.065626,0.050001 L 5.8703873,4.5851199 5.4563151,4.9570037 C 4.8487102,5.504926 4.4474648,6.2532856 4.2797251,7.0648657 4.3851056,7.0229879 4.495392,6.9824848 4.6031701,6.9414252 4.7761929,6.3185168 5.1077367,5.7445784 5.5906933,5.2913865 L 6.0594543,4.8507512 6.3391484,5.1945093 6.5125899,4.2382368 Z M 7.5001131,5.5195169 7.4047981,6.0476543 C 7.8720578,5.9254468 8.330499,5.8196391 8.7813928,5.7257718 8.5569827,5.6339242 8.320094,5.5770203 8.0766891,5.5601428 l -0.576576,-0.040626 z m 5.1579339,0.3593834 c -0.04214,8.4e-4 -0.09017,0.00658 -0.132816,0.00782 0.0841,0.1844129 0.167661,0.3699155 0.231255,0.5656383 0.388296,1.1950505 0.313833,2.4367829 -0.126566,3.5360199 2.206154,-1.040049 3.573201,-2.2095261 3.345392,-3.0688287 C 15.791444,6.2220545 14.5776,5.8407191 12.658047,5.8789003 Z m -1.437534,0.101565 c -0.09846,0.010538 -0.201565,0.026864 -0.30157,0.039063 0.180845,0.2704066 0.329882,0.5658929 0.434385,0.8875208 0.440946,1.3570936 0.09632,2.8276201 -0.918771,3.7860269 l -0.309383,0.293757 c 0.254286,-0.08457 0.488393,-0.176457 0.731267,-0.265631 C 11.754342,9.6906149 12.067076,8.2162603 11.614272,6.8226724 11.516061,6.5204121 11.379905,6.241547 11.220513,5.9804652 Z M 9.5454744,6.2304711 C 8.8337492,6.3612263 8.1074722,6.5162172 7.3735477,6.7148574 c -0.032857,0.00889 -0.062585,0.019142 -0.095315,0.028125 L 7.0579152,7.9648872 6.300085,7.0398651 C 6.1291808,7.0936343 5.9476606,7.1416938 5.7813228,7.1976812 5.6327871,7.6754788 5.6229983,8.2035864 5.789139,8.7149048 6.1072512,9.6939534 6.9433088,10.363906 7.9063755,10.441508 l 0.5828264,0.04687 -0.00472,0.0875 0.4984493,-2.5359967 1.0359628,1.2656546 C 10.363075,8.7202489 10.444392,7.9968895 10.211114,7.2789335 10.077724,6.8684013 9.8415254,6.513185 9.5454744,6.2304711 Z M 4.4797297,7.6805053 c -0.095295,0.038209 -0.1897897,0.075274 -0.2828191,0.1140651 -0.012111,0.4590012 0.042044,0.9241049 0.1890669,1.3765947 0.434696,1.3378559 1.4894711,2.2791789 2.7516271,2.6250619 0.026525,-0.0056 0.054658,-0.01303 0.081252,-0.01875 l 0.014065,-0.278132 C 6.0363917,11.192211 5.0456847,10.309247 4.6484837,9.0867879 4.4979893,8.6236138 4.4484473,8.1463226 4.4797297,7.6805053 Z M 3.0140703,8.3289581 C 1.0105144,9.3263631 -0.19093218,10.421007 0.02493773,11.235276 0.27134803,12.169914 2.328212,12.470609 5.085994,12.135297 4.2458843,11.496063 3.5903069,10.603229 3.2453257,9.5414866 3.1153077,9.1413316 3.0438772,8.7346237 3.0140703,8.3289581 Z m 6.6548441,2.4438069 -0.07344,0.373447 c 0.100851,-0.03129 0.20537,-0.06011 0.304695,-0.09219 l -0.231255,-0.281257 z"
     id="path4138"
     inkscape:connector-curvature="0" />
  <g
     id="g4263"
     transform="matrix(0.42307692,0,0,0.42307692,6.3606939,1.5192308)">
    <g
       style="fill:#353535;fill-opacity:1"
       id="g3628"
       transform="matrix(0.34782609,0,0,0.34782609,2.6435901,2.6456559)" />
    <g
       transform="matrix(0.49988464,0,0,0.49988464,-37.411065,7.9950011)"
       clip-path="url(#clipPath-408241621)"
       id="g3650">
      <!-- color: #004794 -->
      <g
         id="g3652" />
    </g>
  </g>
  <g
     id="g4174"
     transform="matrix(0.24721939,0.76086307,-0.76086307,0.24721939,13.650205,-3.0927699)">
    <g
       style="fill:#353535;fill-opacity:1"
       id="g3628-8"
       transform="matrix(0.34782609,0,0,0.34782609,2.6435901,2.6456559)">
      <path
         inkscape:connector-curvature="0"
         id="path3630"
         transform="matrix(2.875,0,0,2.875,97.067647,-33.481261)"
         d="m -25.40625,14.5 c 2.303968,0 4.367461,1.302964 5.28125,3.3125 l 1.21875,-0.46875 -1,3.46875 -3.3125,-1.84375 1.28125,-0.5 c -0.620857,-1.310198 -1.9541,-2.125 -3.46875,-2.125 -1.572637,0 -2.996131,0.939574 -3.5625,2.34375 L -30.75,18 c 0.844805,-2.103515 2.984794,-3.5 5.34375,-3.5 z m -5.5,4.71875 3.3125,1.78125 -1.28125,0.5 c 0.613358,1.304699 1.964097,2.15625 3.46875,2.15625 1.575636,0 2.978635,-0.910324 3.5625,-2.3125 l 1.78125,0.6875 c -0.876798,2.103015 -2.979296,3.46875 -5.34375,3.46875 -2.292471,0 -4.386956,-1.339213 -5.28125,-3.34375 l -1.21875,0.4375 z"
         style="fill:#353535;fill-opacity:1"
         sodipodi:nodetypes="scccccsccscccsccsccc" />
    </g>
    <g
       transform="matrix(0.49988464,0,0,0.49988464,-37.411065,7.9950011)"
       clip-path="url(#clipPath-408241621-2)"
       id="g3650-3">
      <!-- color: #004794 -->
      <g
         id="g3652-1" />
    </g>
  </g>
  <g
     id="g4174-4"
     style="stroke:#000000;stroke-width:1.5;stroke-miterlimit:4;stroke-dasharray:none;stroke-opacity:1"
     transform="matrix(0.30901699,0.95105652,-0.95105652,0.30901699,14.828732,0.6023939)">
    <g
       style="fill:#353535;fill-opacity:1;stroke:#000000;stroke-width:4.3125;stroke-miterlimit:4;stroke-dasharray:none;stroke-opacity:1"
       id="g3628-8-4"
       transform="matrix(0.34782609,0,0,0.34782609,2.6435901,2.6456559)" />
    <g
       transform="matrix(0.49988464,0,0,0.49988464,-37.411065,7.9950011)"
       clip-path="url(#clipPath-408241621-2-6)"
       id="g3650-3-9"
       style="stroke:#000000;stroke-width:3.00069237;stroke-miterlimit:4;stroke-dasharray:none;stroke-opacity:1">
      <!-- color: #004794 -->
      <g
         id="g3652-1-7"
         style="stroke:#000000;stroke-width:3.00069237;stroke-miterlimit:4;stroke-dasharray:none;stroke-opacity:1" />
    </g>
  </g>
</svg>

<!-- Created with Inkscape (http://www.inkscape.org/) -->
<svg xmlns="http://www.w3.org/2000/svg" viewBox="0 0 16 16">
 <path d="m 8.761 4.174 -0.017 0.322 c 0.638 0.158 1.218 0.487 1.684 0.939 0.121 -0.017 0.236 -0.029 0.355 -0.044 -0.152 -0.169 -0.32 -0.323 -0.497 -0.463 -0.047 -0.023 -0.097 -0.04 -0.144 -0.064 -0.263 -0.133 -0.434 -0.256 -0.766 -0.442 -0.07 -0.04 -0.157 -0.087 -0.238 -0.131 -0.124 -0.044 -0.25 -0.086 -0.378 -0.117 m -2.248 0.064 -0.791 0.02 c -0.022 0.018 -0.044 0.032 -0.066 0.05 l 0.214 0.277 -0.414 0.372 c -0.608 0.548 -1.01 1.296 -1.177 2.108 0.105 -0.042 0.216 -0.082 0.323 -0.123 0.173 -0.623 0.505 -1.197 0.988 -1.65 l 0.469 -0.441 0.28 0.344 0.173 -0.956 m 0.988 1.281 -0.095 0.528 c 0.467 -0.122 0.926 -0.228 1.377 -0.322 -0.224 -0.092 -0.461 -0.149 -0.705 -0.166 l -0.577 -0.041 z m 5.158 0.359 c -0.042 0.001 -0.09 0.007 -0.133 0.008 0.084 0.184 0.168 0.37 0.231 0.566 0.388 1.195 0.314 2.437 -0.127 3.536 2.206 -1.04 3.573 -2.21 3.345 -3.069 c -0.184 -0.697 -1.398 -1.079 -3.317 -1.041 m -1.438 0.102 c -0.098 0.011 -0.202 0.027 -0.302 0.039 0.181 0.27 0.33 0.566 0.434 0.888 0.441 1.357 0.096 2.828 -0.919 3.786 l -0.309 0.294 c 0.254 -0.085 0.488 -0.176 0.731 -0.266 c 0.898 -1.031 1.211 -2.505 0.758 -3.899 -0.098 -0.302 -0.234 -0.581 -0.394 -0.842 m -1.675 0.25 c -0.712 0.131 -1.438 0.286 -2.172 0.484 c -0.033 0.009 -0.063 0.019 -0.095 0.028 l -0.22 1.222 -0.758 -0.925 c -0.171 0.054 -0.352 0.102 -0.519 0.158 -0.149 0.478 -0.158 1.01 0.008 1.517 0.318 0.979 1.154 1.649 2.117 1.727 l 0.583 0.047 -0.005 0.088 0.498 -2.536 1.036 1.266 c 0.344 -0.585 0.425 -1.309 0.192 -2.027 -0.133 -0.411 -0.37 -0.766 -0.666 -1.048 m -5.066 1.45 c -0.095 0.038 -0.19 0.075 -0.283 0.114 -0.012 0.459 0.042 0.924 0.189 1.377 0.435 1.338 1.489 2.279 2.752 2.625 0.027 -0.006 0.055 -0.013 0.081 -0.019 l 0.014 -0.278 c -1.197 -0.307 -2.187 -1.19 -2.584 -2.413 -0.15 -0.463 -0.2 -0.94 -0.169 -1.406 m -1.466 0.648 c -2 0.997 -3.205 2.092 -2.989 2.906 0.246 0.935 2.303 1.235 5.061 0.9 -0.84 -0.639 -1.496 -1.532 -1.841 -2.594 -0.13 -0.4 -0.201 -0.807 -0.231 -1.213 m 6.655 2.444 -0.073 0.373 c 0.101 -0.031 0.205 -0.06 0.305 -0.092 l -0.231 -0.281 z" style="fill:#353535;opacity:1;fill-opacity:0.941;stroke:none;fill-rule:nonzero"/>
 <g transform="matrix(0.42307692,0,0,0.42307692,6.3606939,1.5192308)">
  <g transform="matrix(0.49988464,0,0,0.49988464,-37.411065,7.9950011)">
   <!-- color: #004794 -->
  </g>
 </g>
 <g transform="matrix(0.24721939,0.76086307,-0.76086307,0.24721939,13.650205,-3.0927699)">
  <g transform="matrix(0.34782609,0,0,0.34782609,2.6435901,2.6456559)" style="fill:#353535;fill-opacity:1">
   <path transform="matrix(2.875,0,0,2.875,97.067647,-33.481261)" d="m -25.406 14.5 c 2.304 0 4.367 1.303 5.281 3.313 l 1.219 -0.469 -1 3.469 -3.313 -1.844 1.281 -0.5 c -0.621 -1.31 -1.954 -2.125 -3.469 -2.125 -1.573 0 -2.996 0.94 -3.563 2.344 l -1.781 -0.688 c 0.845 -2.104 2.985 -3.5 5.344 -3.5 z m -5.5 4.719 3.313 1.781 -1.281 0.5 c 0.613 1.305 1.964 2.156 3.469 2.156 1.576 0 2.979 -0.91 3.563 -2.313 l 1.781 0.688 c -0.877 2.103 -2.979 3.469 -5.344 3.469 -2.292 0 -4.387 -1.339 -5.281 -3.344 l -1.219 0.438 z"/>
  </g>
  <g transform="matrix(0.49988464,0,0,0.49988464,-37.411065,7.9950011)">
   <!-- color: #004794 -->
  </g>
 </g>
 <g transform="matrix(0.30901699,0.95105652,-0.95105652,0.30901699,14.828732,0.6023939)" style="stroke-dasharray:none;stroke-opacity:1;stroke-miterlimit:4;stroke:#000;stroke-width:1.5">
  <g transform="matrix(0.49988464,0,0,0.49988464,-37.411065,7.9950011)" style="stroke-width:3">
   <!-- color: #004794 -->
  </g>
 </g>
</svg>
